!!!OTL: GEN ALMA GEH I AUFI
!!!ARE: Europa, Mitteleuropa, Deutschland
!!!SCT: E1483A
!!!YEM: Copyright 1995, estate of Helmut Schaffrath.
**kern
*ICvox
*Ivox
*M2/4
*k[f#]
*G:
{8b
=1
8.dd
16b
8.dd
16b
=2
8.g
16b
8g
16r}
{16b
=3
8.a
16cc
8.f#
16a
=4
4g
8r}
{8b
=5
8.dd
16b
8.dd
16b
=6
8.g
16b
8g
16r}
{16b
=7
8.a
16cc
8.f#
16a
=8
4g
8r}
{8e
=9
8.e
16e
8.e
16e
=10
8.cc
16cc
8cc
16r}
{16a
=11
8a
8a
8a
8a
=12
4dd
8r}
{8dd
=13
8.gg
16dd
8.gg
16dd
=14
8.b
16dd
8.g}
{16b
=15
8.a
16cc
8.f#
16a
=16
4g
8r}
==
!!!AGN: Staende -, Hirten -, Alpen - Lied
!!!ONB: ESAC (Essen Associative Code) Database: ERK3
!!!AMT: simple duple
!!!AIN: vox
!!!EED: Helmut Schaffrath
!!!EEV: 1.0
*-
